src/assets/outline/GoogleDrive.svg

<?xml version="1.0" encoding="UTF-8"?>
<svg width="24" height="24" viewBox="0 0 24 24" xmlns="http://www.w3.org/2000/svg">
 <path d="m19.41 21.75h-14.82c-0.26 0-0.51002-0.14-0.64002-0.36l-3.18-5.29c-0.14-0.23-0.14-0.53 0-0.76l7.41-12.71c0.13-0.23 0.38003-0.36999 0.65003-0.36999h6.35c0.27 0 0.51 0.13999 0.65 0.36999 2.79 4.78 7 11.99 7.36 12.55 0.1 0.13 0.15 0.2801 0.15 0.4501 0 0.18-0.06 0.34-0.17 0.47-0.26 0.39-2.02 3.42-3.11 5.28-0.13 0.23-0.38 0.37-0.65 0.37zm-14.4-1.5h13.97c1.49-2.56 2.29-3.9201 2.78-4.6401-0.57-0.84-1.57-2.5399-3.54-5.9099l-3.47-5.95h-5.49l-6.97 11.95 2.72 4.55zm17.36-3.9201v0.0201-0.0201z"/>
 <path d="m19.41 21.749c-0.26 0-0.5099-0.13-0.6499-0.37l-10.59-18c-0.21-0.36-0.08998-0.82 0.27002-1.03s0.81997-0.09001 1.03 0.26999l10.59 18c0.21 0.36 0.09 0.82-0.27 1.03-0.12 0.07-0.25 0.1-0.38 0.1z"/>
 <path d="m4.5903 21.749c-0.13 0-0.26001-0.03-0.38001-0.1-0.36-0.21-0.48002-0.67-0.27002-1.03l10.59-18c0.21-0.36 0.6699-0.47999 1.0299-0.26999s0.4801 0.67 0.2701 1.03l-10.59 18c-0.15 0.24-0.39996 0.37-0.64996 0.37z"/>
 <path d="m22 16.461h-20.5c-0.41 0-0.75-0.34-0.75-0.75s0.34-0.75 0.75-0.75h20.5c0.41 0 0.75 0.34 0.75 0.75s-0.34 0.75-0.75 0.75z"/>
</svg>

<svg width="24" height="24" viewBox="0 0 24 24"  xmlns="http://www.w3.org/2000/svg">
<path d="M19.41 21.7498H4.59005C4.33005 21.7498 4.08003 21.6098 3.95003 21.3898L0.770039 16.0998C0.630039 15.8698 0.630039 15.5698 0.770039 15.3398L8.18001 2.62976C8.31001 2.39976 8.56004 2.25977 8.83004 2.25977H15.18C15.45 2.25977 15.69 2.39976 15.83 2.62976C18.62 7.40976 22.83 14.6197 23.19 15.1797C23.29 15.3097 23.34 15.4598 23.34 15.6298C23.34 15.8098 23.28 15.9698 23.17 16.0998C22.91 16.4898 21.15 19.5198 20.06 21.3798C19.93 21.6098 19.68 21.7498 19.41 21.7498ZM5.01003 20.2498H18.98C20.47 17.6898 21.27 16.3297 21.76 15.6097C21.19 14.7697 20.19 13.0698 18.22 9.69977L14.75 3.74976H9.26003L2.29 15.6998L5.01003 20.2498ZM22.37 16.3297V16.3498V16.3297Z" />
<path d="M19.4097 21.7494C19.1497 21.7494 18.8998 21.6194 18.7598 21.3794L8.16973 3.37943C7.95973 3.01943 8.07975 2.55943 8.43975 2.34943C8.79975 2.13943 9.25972 2.25942 9.46972 2.61942L20.0597 20.6194C20.2697 20.9794 20.1497 21.4394 19.7897 21.6494C19.6697 21.7194 19.5397 21.7494 19.4097 21.7494Z" />
<path d="M4.59027 21.7494C4.46027 21.7494 4.33026 21.7194 4.21026 21.6494C3.85026 21.4394 3.73024 20.9794 3.94024 20.6194L14.5303 2.61942C14.7403 2.25942 15.2002 2.13943 15.5602 2.34943C15.9202 2.55943 16.0403 3.01943 15.8303 3.37943L5.24023 21.3794C5.09023 21.6194 4.84027 21.7494 4.59027 21.7494Z" />
<path d="M22 16.4609H1.5C1.09 16.4609 0.75 16.1209 0.75 15.7109C0.75 15.3009 1.09 14.9609 1.5 14.9609H22C22.41 14.9609 22.75 15.3009 22.75 15.7109C22.75 16.1209 22.41 16.4609 22 16.4609Z" />
</svg>
